!!!COM: Josquin Desprez
!!!CDT: ~1440///-1521/08/27/
!!!OTL: Nymphes des bois
!!!ODT: ~1508///
!!!OTA: La d&eacute;ploration sur la mort de Jean Ockeghem
!!!LYR: Jehan Molinet
!!!PPR: Tielman Susato
!!!PPP: Antwerp, Belgium
!!!PDT: 1545
!!!SMS: Le septiesme livre sontenant vingt & quatre chansons a cincq et a six parties
!!!AGN: chanson; requiem
**kern	**kern	**kern	**kern	**kern
*Ivox	*Ivox	*Ivox	*Ivox	*Ivox
*M2/2	*M2/2	*M2/2	*M2/2	*M2/2
*MM208	*MM208	*MM208	*MM208	*MM208
=1-	=1-	=1-	=1-	=1-
1r	[1A	1r	1a	1a
=2	=2	=2	=2	=2
1r	1A]	1r	1a	1cc
=3	=3	=3	=3	=3
1r	1B-	1r	1d	2.dd
.	.	.	.	4ee
=4	=4	=4	=4	=4
1D	1A	1d	[1a	1ff
=5	=5	=5	=5	=5
1D	1A	1d	1a]	1r
=6	=6	=6	=6	=6
1E	1r	1G	1g	1gg
=7	=7	=7	=7	=7
[1D	[1A	[1d	1a	2ff
.	.	.	.	2ff
=8	=8	=8	=8	=8
1D]	2A]	1d]	1f	2ff
.	2B-	.	.	2dd
=9	=9	=9	=9	=9
1C	1c	1r	1g	[1ee-
=10	=10	=10	=10	=10
2r	1c	1r	[1g	1ee-]
2C	.	.	.	.
=11	=11	=11	=11	=11
2G	2B-	1d	2g]	[1dd
2F#	2A	.	2a	.
=12	=12	=12	=12	=12
1G	1B-	2d	2g	1dd]
.	.	2d	[2b-	.
=13	=13	=13	=13	=13
1G	1B-	2d	4b-]	1r
.	.	.	4a	.
.	.	[2e-	2g	.
=14	=14	=14	=14	=14
2D	1A	4e-]	1f	1r
.	.	4d	.	.
2F	.	[2d	.	.
=15	=15	=15	=15	=15
1E-	1r	2d]	1g	1r
.	.	2c	.	.
=16	=16	=16	=16	=16
[1D	[1A	2.d	2f	1ff
.	.	.	2r	.
.	.	4e	.	.
=17	=17	=17	=17	=17
1D]	2A]	1f	1d	2ff
.	2B-	.	.	2ff
=18	=18	=18	=18	=18
1C	1c	1g	1e	2.ee
.	.	.	.	4cc
=19	=19	=19	=19	=19
2C	1c	[1g	1e	2cc
2C	.	.	.	2cc
=20	=20	=20	=20	=20
1G	[1B-	2g]	1d	2.dd
.	.	2g	.	.
.	.	.	.	4cc
=21	=21	=21	=21	=21
1G	1B-]	2.d	2r	2b-
.	.	.	2G	2b-
.	.	4e	.	.
=22	=22	=22	=22	=22
2.F	1c	1f	2A	[1a
.	.	.	2F	.
4F	.	.	.	.
=23	=23	=23	=23	=23
2F	1c	2r	2A	1a]
2F	.	2f	2A	.
=24	=24	=24	=24	=24
[1C	1e-	2.g	1G	1r
.	.	4f	.	.
=25	=25	=25	=25	=25
1C]	1c	2e-	1g	1r
.	.	2e-	.	.
=26	=26	=26	=26	=26
1G	[1B-	1d	2g	1b-
.	.	.	2g	.
=27	=27	=27	=27	=27
2G	1B-]	2r	2.d	2b-
2G	.	2G	.	2b-
.	.	.	4e	.
=28	=28	=28	=28	=28
2.F	[1c	2A	1f	1a
.	.	2F	.	.
4E	.	.	.	.
=29	=29	=29	=29	=29
1C	1c_	1G	2r	1g
.	.	.	2e	.
=30	=30	=30	=30	=30
2r	1c_	2A	2e	1cc
2C	.	2G	2e	.
=31	=31	=31	=31	=31
2F	1c_	2A	2.f	2cc
2F	.	[2A	.	2cc
.	.	.	4g	.
=32	=32	=32	=32	=32
2F	1c_	2A]	2a	2.cc
2F	.	2F	2a	.
.	.	.	.	4dd
=33	=33	=33	=33	=33
1E	1c]	1G	1g	2ee
.	.	.	.	2ee
=34	=34	=34	=34	=34
[1D	[1d	1A	[1f	2.ff
.	.	.	.	4ee
=35	=35	=35	=35	=35
1D]	1d]	2r	1f]	2.dd
.	.	2f	.	.
.	.	.	.	8cc
.	.	.	.	8b-
=36	=36	=36	=36	=36
1F	[1c	2f	2r	2a
.	.	2f	2a	2r
=37	=37	=37	=37	=37
2F	1c_	1c	2a	1cc
2F	.	.	2a	.
=38	=38	=38	=38	=38
1C	1c_	2r	1g	2cc
.	.	2c	.	2cc
=39	=39	=39	=39	=39
2r	1c]	2.g	2r	1g
2C	.	.	2e	.
.	.	4g	.	.
=40	=40	=40	=40	=40
2.G	[1B-	2g	2d	2r
.	.	2g	2d	2g
4G	.	.	.	.
=41	=41	=41	=41	=41
2G	1B-]	[1d	2g	2.dd
2G	.	.	2g	.
.	.	.	.	4dd
=42	=42	=42	=42	=42
[1D	2r	1d]	1f	2dd
.	2A	.	.	2dd
=43	=43	=43	=43	=43
1D]	2.A	1f	1F	1a
.	4B-	.	.	.
=44	=44	=44	=44	=44
2.E	2c	[1e	1G	1r
.	[2B-	.	.	.
4D	.	.	.	.
=45	=45	=45	=45	=45
1C	2B-]	1e]	1E	1r
.	2A	.	.	.
=46	=46	=46	=46	=46
[1BB-	1B-	[1d	1F	1dd
=47	=47	=47	=47	=47
1BB-]	1B-	1d]	1f	2dd
.	.	.	.	2dd
=48	=48	=48	=48	=48
1F	[1A	1a	2f	[1cc
.	.	.	2f	.
=49	=49	=49	=49	=49
2F	1A]	2a	1f	1cc]
2F	.	2a	.	.
=50	=50	=50	=50	=50
1G	1r	1g	2r	1b-
.	.	.	2d	.
=51	=51	=51	=51	=51
2r	1r	2r	2e-	2r
2G	.	2g	2d	2b-
=52	=52	=52	=52	=52
2.A	1r	2.f	2.c	2cc
.	.	.	.	2cc
4G	.	4e	4B-	.
=53	=53	=53	=53	=53
2F	1r	2d	2A	2dd
2E	.	[2c	2G	2ee
=54	=54	=54	=54	=54
1D	1r	4c]	1F	1ff
.	.	8B	.	.
.	.	8A	.	.
.	.	2B	.	.
=55	=55	=55	=55	=55
1C	1c	2c	1G	[1ee
.	.	2g	.	.
=56	=56	=56	=56	=56
1r	2c	2e	2A	2ee]
.	2A	[2a	2F	2ff
=57	=57	=57	=57	=57
1r	1B-	4a]	1G	[1dd
.	.	4f	.	.
.	.	2g	.	.
=58	=58	=58	=58	=58
1D	[1A	2a	1d	1dd]
.	.	2r	.	.
=59	=59	=59	=59	=59
1D	1A_	[1a	2d	[1ff
.	.	.	2d	.
=60	=60	=60	=60	=60
2.F	1A]	1a]	[1c	2ff]
.	.	.	.	2ff
4G	.	.	.	.
=61	=61	=61	=61	=61
1A	1r	1a	1c]	2.ee
.	.	.	.	4cc
=62	=62	=62	=62	=62
2r	1r	2.a	2r	1cc
2A	.	.	2c	.
.	.	4g	.	.
=63	=63	=63	=63	=63
2.B-	1r	4f	2.d	1r
.	.	4e	.	.
.	.	2d	.	.
4A	.	.	4c	.
=64	=64	=64	=64	=64
2G	1r	2r	2B-	1r
2F	.	[2d	2A	.
=65	=65	=65	=65	=65
1E	1r	2d]	1G	2r
.	.	2c#	.	2ee
=66	=66	=66	=66	=66
1D	1r	2.d	1A	2.ff
.	.	4e	.	4ee
=67	=67	=67	=67	=67
1r	1r	4f	1r	2dd
.	.	4g	.	.
.	.	[2a	.	2cc
=68	=68	=68	=68	=68
1r	1r	4a]	1r	1b-
.	.	4f	.	.
.	.	2g	.	.
=69	=69	=69	=69	=69
1F	[1c	[1a	1f	2a
.	.	.	.	2r
=70	=70	=70	=70	=70
2F	1c]	1a]	2f	1cc
2F	.	.	2f	.
=71	=71	=71	=71	=71
1BB-	[1B-	1d	1f	2.dd
.	.	.	.	4ee
=72	=72	=72	=72	=72
2r	1B-_	2d	2r	2ff
2BB-	.	2d	2f	2ff
=73	=73	=73	=73	=73
2E-	1B-]	2e-	2.g	2b-
2D	.	2e-	.	2b-
.	.	.	4g	.
=74	=74	=74	=74	=74
2C	1c	2e-	2g	2ee-
2C	.	2E-	2g	2ee-
=75	=75	=75	=75	=75
2.E-	[1B-	2G	1g	2ee-
.	.	2G	.	2ee-
4D	.	.	.	.
=76	=76	=76	=76	=76
1BB-	1B-]	2.B-	[1f	1dd
.	.	4A	.	.
=77	=77	=77	=77	=77
1r	1A	1F	1f]	[1cc
=78	=78	=78	=78	=78
1r	1A	2r	1c	1cc]
.	.	[2c	.	.
=79	=79	=79	=79	=79
1F	1r	2c]	1r	1a
.	.	2A	.	.
=80	=80	=80	=80	=80
2D	1r	2A	1f	2a
2D	.	[2d	.	2a
=81	=81	=81	=81	=81
1G	1r	2d]	2d	1b-
.	.	2B-	2d	.
=82	=82	=82	=82	=82
2r	1r	2c	1e	1g
2C	.	2c	.	.
=83	=83	=83	=83	=83
2.F	[1c	2A	2r	2a
.	.	2F	2c	2a
4F	.	.	.	.
=84	=84	=84	=84	=84
2F	1c]	1A	2f	2a
2F	.	.	2f	2a
=85	=85	=85	=85	=85
1G	1B-	[1G	2d	2.b-
.	.	.	2d	.
.	.	.	.	4g
=86	=86	=86	=86	=86
[1C	1c	1G]	2.e	[1g
.	.	.	4c	.
=87	=87	=87	=87	=87
1C]	2c	2r	1c	1g]
.	[2e-	[2c	.	.
=88	=88	=88	=88	=88
1r	2e-]	2c]	[1g	1r
.	2d	2B-	.	.
=89	=89	=89	=89	=89
1C	1c	1e-	1g]	1r
=90	=90	=90	=90	=90
[1G	[1B-	2r	2r	1dd
.	.	2d	2g	.
=91	=91	=91	=91	=91
2G]	1B-]	2d	2g	2dd
2G	.	2d	2g	2dd
=92	=92	=92	=92	=92
1E	1c	1g	1G	1ee
=93	=93	=93	=93	=93
[1D	[1d	1f	1A	1ff
=94	=94	=94	=94	=94
1D]	1d]	[1a	2F	2.ff
.	.	.	2F	.
.	.	.	.	4ff
=95	=95	=95	=95	=95
2.F	[1c	2a]	2.A	2ff
.	.	2a	.	2ff
4F	.	.	4B-	.
=96	=96	=96	=96	=96
2C	1c]	2g	2c	1ee
2C	.	2g	[2G	.
=97	=97	=97	=97	=97
1G	1B-	2.b-	2G]	1dd
.	.	.	[2d	.
.	.	4a	.	.
=98	=98	=98	=98	=98
2D	[1A	1f	2d]	2.ff
[2F	.	.	2A	.
.	.	.	.	4ee
=99	=99	=99	=99	=99
4F]	2A]	2r	1f	2cc
4E	.	.	.	.
2D	2B-	2F	.	2dd
=100	=100	=100	=100	=100
2C	1c	2.G	2e	1ee
2C	.	.	[2g	.
.	.	4A	.	.
=101	=101	=101	=101	=101
1G	1B-	4B-	4g]	1dd
.	.	4c	4a	.
.	.	[2d	4b-	.
.	.	.	4g	.
=102	=102	=102	=102	=102
1D	1A	4d]	2a	2.ff
.	.	4e	.	.
.	.	[2f	[2d	.
.	.	.	.	4ee
=103	=103	=103	=103	=103
1r	2B-	4f]	4d]	2dd
.	.	4g	4e	.
.	2A	[2a	2f	2cc
=104	=104	=104	=104	=104
1r	1B-	2a]	2.d	1dd
.	.	2g	.	.
.	.	.	4e	.
=105	=105	=105	=105	=105
2.F	[1A	2.a	2f	2cc
.	.	.	2c	[2a
4E	.	4g	.	.
=106	=106	=106	=106	=106
2D	1A_	2f	2d	2a]
2C	.	2e	2e	2a
=107	=107	=107	=107	=107
1D	1A_	1d	1f	2a
.	.	.	.	2a
=108	=108	=108	=108	=108
[1AA	1A_	[1c	[1e	2.cc
.	.	.	.	4a
=109	=109	=109	=109	=109
1AA_	1A_	1c_	1e_	[1a
=110	=110	=110	=110	=110
1AA]	1A]	1c]	1e]	1a]
=111	=111	=111	=111	=111
1A	1r	1e	1a	1cc
=112	=112	=112	=112	=112
2A	1r	2e	2a	2cc
2A	.	2c	2a	2cc
=113	=113	=113	=113	=113
[1G	1r	1g	[1b-	[1dd
=114	=114	=114	=114	=114
2G]	1r	1g	2b-]	2dd]
2G	.	.	2b-	2dd
=115	=115	=115	=115	=115
2.d	1r	2f	2a	2.ff
.	.	[2d	2f	.
4c	.	.	.	4ee
=116	=116	=116	=116	=116
2B-	1r	4d]	1g	2dd
.	.	4c	.	.
2B-	.	2d	.	2dd
=117	=117	=117	=117	=117
[1A	1r	1e	[1a	1cc
=118	=118	=118	=118	=118
1A]	1r	2r	1a]	1ee
.	.	[2a	.	.
=119	=119	=119	=119	=119
1d	1r	2a]	2r	1ff
.	.	[2f	2a	.
=120	=120	=120	=120	=120
1B-	1r	2f]	1b-	1dd
.	.	[2g	.	.
=121	=121	=121	=121	=121
1c	1r	2g]	1g	1ee
.	.	[2e	.	.
=122	=122	=122	=122	=122
1A	1r	2e]	1a	1cc
.	.	[2f	.	.
=123	=123	=123	=123	=123
1B-	1r	2f]	1f	1dd
.	.	[2d	.	.
=124	=124	=124	=124	=124
2G	1r	2d]	2g	1b-
2G	.	2e	2g	.
=125	=125	=125	=125	=125
1A	1r	1c	1e	2.cc
.	.	.	.	4a
=126	=126	=126	=126	=126
1D	1r	1d	1f	1a
=127	=127	=127	=127	=127
1A	1r	1e	1a	1cc
=128	=128	=128	=128	=128
2A	1r	2e	2a	2cc
2A	.	2c	2a	2cc
=129	=129	=129	=129	=129
[1G	1r	1g	[1b-	[1dd
=130	=130	=130	=130	=130
2G]	1r	1g	2b-]	2dd]
2G	.	.	2b-	2dd
=131	=131	=131	=131	=131
2.d	1r	2f	2a	2.ff
.	.	[2d	2f	.
4c	.	.	.	4ee
=132	=132	=132	=132	=132
2B-	1r	4d]	1g	2dd
.	.	4c	.	.
2B-	.	2d	.	2dd
=133	=133	=133	=133	=133
[1A	1r	1e	[1a	1cc
=134	=134	=134	=134	=134
1A]	1r	2r	1a]	1ee
.	.	[2a	.	.
=135	=135	=135	=135	=135
1d	1r	2a]	2r	1ff
.	.	[2f	2a	.
=136	=136	=136	=136	=136
1B-	1r	2f]	1b-	1dd
.	.	[2g	.	.
=137	=137	=137	=137	=137
1c	1r	2g]	1g	1ee
.	.	[2e	.	.
=138	=138	=138	=138	=138
1A	1r	2e]	1a	1cc
.	.	[2f	.	.
=139	=139	=139	=139	=139
1B-	1r	2f]	1f	1dd
.	.	[2d	.	.
=140	=140	=140	=140	=140
2G	1r	2d]	2g	1b-
2G	.	2e	2g	.
=141	=141	=141	=141	=141
1A	1r	1c	1e	2.cc
.	.	.	.	4a
=142	=142	=142	=142	=142
1D	1r	1d	1f	1a
=143	=143	=143	=143	=143
1A	1A	1c	1e	1cc
=144	=144	=144	=144	=144
2F	2A	2A	2f	2cc
2F	2A	2A	2f	2cc
=145	=145	=145	=145	=145
2D	2A	2d	2f	2ff
2D	2A	2d	2f	2ff
=146	=146	=146	=146	=146
1F	1A	2.A	1f	2.cc
.	.	4B-	.	4dd
=147	=147	=147	=147	=147
[1C	[1G	[1c	1e	1ee
=148	=148	=148	=148	=148
1C]	1G]	1c]	[1e	[1gg
=149	=149	=149	=149	=149
[1c	1G	1r	1e]	2gg]
.	.	.	.	2ee
=150	=150	=150	=150	=150
2c]	1G	[1c	1r	1ee
2A	.	.	.	.
=151	=151	=151	=151	=151
1A	[1A	2c]	1e	2.cc
.	.	2A	.	.
.	.	.	.	4a
=152	=152	=152	=152	=152
2r	1A]	[1A	1f	[1a
[2F	.	.	.	.
=153	=153	=153	=153	=153
2F]	1A	1A_	[1f	1a_
2D	.	.	.	.
=154	=154	=154	=154	=154
1D	[1A	1A_	1f]	1a_
=155	=155	=155	=155	=155
[1AA	1A_	1A_	[1e	1a_
=156	=156	=156	=156	=156
1AA_	1A_	1A_	1e]	1a_
=157	=157	=157	=157	=157
1AA_	1A_	1A_	[1e	1a_
=158	=158	=158	=158	=158
1AA]	1A]	1A]	1e]	1a]
*-	*-	*-	*-	*-
!!!ENC: Craig Stuart Sapp
!!!END: 2004/03/15/
